X:9
T:A Very Grand March by WL.2voices. AJH.009
M:4/4
L:1/8
Q:1/4=120
S:A.J.Hughes MS
O:England
A:North Shropshire
N:Certainly is!
V:1
V:2 clef=bass
Z:Neil Brookes 2006
K:G
[V:1] |: g2d>dd3c | B2G>GG4 | DGGB GBBd | de/d/ cB{B}A4 |
[V:2] |: G,2G,,2B,,2D,2 | G,2G,,2B,,2G,,2 | D,2B,,2E,2G,2 | F,2G,2CD,E,F, |
%
[V:1] g2d>dd3c | B2G>GG2g2 | (3fag (3fed A2^c2 | d2 d>dd4 😐
[V:2] G,2G,,2B,,2D,2 | G,2G,,2B,,2^C,2 | D,2F,2A,2A,,2 | D,2D,>D,D,4 😐
%
[V:1] |: A2A>AA2D/F/G/A/ | B2 B>B B2 (3def | g2d>c B2 G/A/B/c/ | d2 D>DD2d2 |
[V:2] |: D,2D,>D,D,2z2 | G,2G,,>G,,G,,2 D,E,/F,/ |\
G,2D,>C,B,,2G,,2 | D,2D,>D,D,2G,,2 |
%
[V:1] e2e>ee2f2 |g2fe d2c2 | (3Bgf (3edc B2A2 | G2 G>G G4 😐
[V:2] C,2C,2C,2C,2 |B,,2B,,2B,,2A,,2 | G,,2C,2D,2D,,2 | G,,2G,,>G,,G,,4 😐

